images/social/last-fm.svg

<svg xmlns="http://www.w3.org/2000/svg" width="254.97" height="141.54" viewBox="0 0 254.97 141.54"><defs><style>.a{fill:#fff;}</style></defs><title>last-fm</title><path class="a" d="M15.68,78.67C25.59,66.09,41.38,59.45,57,57.9c17.49-.87,36.25-.14,51.51,9.47,11.35,7,19.18,18.54,24.09,30.76,5,12.82,9,26,13.55,38.94,2.5,7,5.19,14.15,9.52,20.3,7.6,10.52,20.23,17.52,33.31,17.43,10.32.34,21.55,1.18,30.85-4.17,4.71-2.64,6.4-8.59,5.2-13.64-1-6.05-6.43-10.1-11.83-12.15-12.75-4.53-26.4-6-39-10.93-8.06-3.7-16-9.45-19.1-18.11a45.7,45.7,0,0,1,1.74-37c4.42-7,10.78-13.19,18.62-16.2,11.18-4.63,23.53-5.5,35.5-4.88,11.79.73,24.27,3.76,32.87,12.4,6.67,6.24,9.49,15.34,10.67,24.16-9.48,2.39-19.41,2.31-29,4.14-1.67-4.65-2.5-10.09-6.58-13.39-6.61-4.57-15.25-5.2-23-3.89-6.28,1-12.58,5.27-14,11.77-.35,4.76,0,10.19,3.42,13.88,2.23,2.49,5.5,3.59,8.57,4.64,12,3.87,24.76,5.28,36.55,9.94,9.41,3.84,18.16,10.72,21.92,20.43,4,10.34,4.33,22.3.1,32.62-2.9,7.24-8.8,13-15.63,16.57-9.48,5-20.23,7.09-30.84,8-10.31,0-20.68.47-30.93-.87-15.27-2.34-30.57-8.42-41.24-19.94a68.79,68.79,0,0,1-13.92-23c-6.26-16.16-10.48-33-17.12-49.06-3-7.28-7.41-14.2-13.94-18.78-8.31-5.83-19.13-7.19-28.95-5.38-9.47,1.82-17.61,8.44-22,16.93-5.51,10.06-6.74,21.78-6.41,33.07,0,10.48,2.58,21.17,8.64,29.83a31.38,31.38,0,0,0,23.7,13.3c15,.72,29.08-6.77,39.9-16.66,3.05,8.54,6.33,17,9.09,25.63-10.68,8.64-24.22,13-37.71,14.59-16.11,1.35-33.29.29-47.49-8.23-12.26-7.19-20.33-20-24-33.48-3-9.66-3.27-19.84-3.1-29.86C.78,110,5,92.29,15.68,78.67Z" transform="translate(-0.54 -57.56)"/></svg>

<?xml version="1.0" encoding="UTF-8" ?>
<!DOCTYPE svg PUBLIC "-//W3C//DTD SVG 1.1//EN" "http://www.w3.org/Graphics/SVG/1.1/DTD/svg11.dtd">
<svg width="256pt" height="256pt" viewBox="0 0 256 256" version="1.1" xmlns="http://www.w3.org/2000/svg">
<g>
<path fill="#fff" opacity="1.00" d=" M 15.68 78.67 C 25.59 66.09 41.38 59.45 57.01 57.90 C 74.50 57.03 93.26 57.76 108.52 67.37 C 119.87 74.41 127.70 85.91 132.61 98.13 C 137.59 110.95 141.59 124.11 146.16 137.07 C 148.66 144.11 151.35 151.22 155.68 157.37 C 163.28 167.89 175.91 174.89 188.99 174.80 C 199.31 175.14 210.54 175.98 219.84 170.63 C 224.55 167.99 226.24 162.04 225.04 156.99 C 224.06 150.94 218.61 146.89 213.21 144.84 C 200.46 140.31 186.81 138.83 174.18 133.91 C 166.12 130.21 158.20 124.46 155.08 115.80 C 150.51 104.01 150.96 90.08 156.82 78.82 C 161.24 71.78 167.60 65.63 175.44 62.62 C 186.62 57.99 198.97 57.12 210.94 57.74 C 222.73 58.47 235.21 61.50 243.81 70.14 C 250.48 76.38 253.30 85.48 254.48 94.30 C 245.00 96.69 235.07 96.61 225.47 98.44 C 223.80 93.79 222.97 88.35 218.89 85.05 C 212.28 80.48 203.64 79.85 195.91 81.16 C 189.63 82.17 183.33 86.43 181.91 92.93 C 181.56 97.69 181.94 103.12 185.33 106.81 C 187.56 109.30 190.83 110.40 193.90 111.45 C 205.93 115.32 218.66 116.73 230.45 121.39 C 239.86 125.23 248.61 132.11 252.37 141.82 C 256.37 152.16 256.70 164.12 252.47 174.44 C 249.57 181.68 243.67 187.40 236.84 191.01 C 227.36 196.04 216.61 198.10 206.00 198.96 C 195.69 198.94 185.32 199.43 175.07 198.09 C 159.80 195.75 144.50 189.67 133.83 178.15 C 127.66 171.54 123.06 163.60 119.91 155.15 C 113.65 138.99 109.43 122.11 102.79 106.09 C 99.80 98.81 95.38 91.89 88.85 87.31 C 80.54 81.48 69.72 80.12 59.90 81.93 C 50.43 83.75 42.29 90.37 37.92 98.86 C 32.41 108.92 31.18 120.64 31.51 131.93 C 31.47 142.41 34.09 153.10 40.15 161.76 C 45.59 169.40 54.41 174.64 63.85 175.06 C 78.87 175.78 92.93 168.29 103.75 158.40 C 106.80 166.94 110.08 175.39 112.84 184.03 C 102.16 192.67 88.62 197.03 75.13 198.62 C 59.02 199.97 41.84 198.91 27.64 190.39 C 15.38 183.20 7.31 170.42 3.68 156.91 C 0.71 147.25 0.41 137.07 0.58 127.05 C 0.78 110.00 4.99 92.29 15.68 78.67 Z" />
</g>
</svg>
